src/assets/protocols/wasabi_light.svg

<svg width="128px" height="120px" viewBox="0 0 128 120" version="1.1" xmlns="http://www.w3.org/2000/svg" xmlns:xlink="http://www.w3.org/1999/xlink">
    <defs></defs>
    <g id="Page-1" stroke="none" stroke-width="1" fill="none" fill-rule="evenodd">
        <g id="wasabi_light" fill-rule="nonzero" fill="#000000">
            <path d="M127.989097,59.8678024 C127.989097,53.9148211 126.397274,48.0708688 123.388075,42.9683135 C120.727768,38.4545145 117.020784,34.6166951 112.626917,31.792845 C112.256218,23.4630324 108.832709,15.6892675 102.901533,9.75809199 C96.6105622,3.46712095 88.237138,0 79.3403748,0 C73.9979557,0 68.7318569,1.27563884 64.0218058,3.72879046 C59.3335605,1.28654174 54.1110733,0 48.681431,0 C39.7846678,0 31.4112436,3.45621806 25.1202726,9.7471891 C19.1890971,15.6783646 15.7764906,23.4521295 15.3948893,31.7710392 C13.3887564,33.0575809 11.5134583,34.5730835 9.79080068,36.2957411 C3.49982964,42.5867121 0.0327086882,50.9601363 0.0327086882,59.8568995 C0.0327086882,65.8098807 1.62453152,71.653833 4.63373083,76.7563884 C7.28313458,81.2701874 10.9901193,85.1080068 15.3948893,87.9318569 C15.7655877,96.2725724 19.1890971,104.046337 25.1202726,109.977513 C31.4112436,116.268484 39.7846678,119.735605 48.681431,119.735605 C54.0238501,119.735605 59.2899489,118.449063 64.0109029,116.006814 C68.7318569,118.459966 73.9979557,119.735605 79.3403748,119.735605 C88.237138,119.735605 96.5996593,116.268484 102.901533,109.96661 C108.832709,104.035434 112.245315,96.2616695 112.626917,87.9427598 C114.633049,86.6562181 116.508348,85.1516184 118.231005,83.4289608 C124.521976,77.1379898 127.989097,68.7645656 127.989097,59.8678024 Z M79.3403748,5.32061329 C86.8197615,5.32061329 93.8521295,8.23168654 99.1400341,13.5195911 C104.427939,18.8074957 107.339012,25.8398637 107.339012,33.3083475 C107.339012,40.7877342 104.427939,47.8201022 99.1400341,53.1080068 C93.8521295,58.3959114 86.8197615,61.3069847 79.3403748,61.3069847 C75.9059625,61.3069847 72.5151618,60.6746167 69.3315162,59.4643952 C71.7410562,57.5563884 73.8889267,55.3103918 75.6988075,52.8136286 C75.7097104,52.8027257 75.7097104,52.8027257 75.7206133,52.7918228 C75.8405451,52.6282794 75.9495741,52.4647359 76.0586031,52.3120954 C76.1131175,52.2357751 76.167632,52.1594549 76.2221465,52.0722317 C76.2548552,52.0177172 76.2875639,51.9632027 76.3311755,51.9195911 C76.7018739,51.3635434 77.0616695,50.8074957 77.3996593,50.2405451 C80.4088586,45.1379898 82.0006814,39.2940375 82.0006814,33.3410562 C82.0006814,33.3410562 82.0006814,33.3410562 82.0006814,33.3301533 C82.0006814,33.3301533 82.0006814,33.3301533 82.0006814,33.3301533 C82.0006814,33.3192504 82.0006814,33.3192504 82.0006814,33.3083475 C82.0006814,33.0793867 82.0006814,32.8504259 81.9897785,32.632368 C81.9897785,32.5342419 81.9897785,32.4470187 81.9788756,32.3488927 C81.9788756,32.2180579 81.9679727,32.0872232 81.9679727,31.9563884 C81.629983,23.5611584 78.2064736,15.732879 72.2425894,9.76899489 C71.3158433,8.84224872 70.3454855,7.98091993 69.3315162,7.18500852 C72.5151618,5.95298126 75.9059625,5.32061329 79.3403748,5.32061329 Z M28.8926746,13.5086882 C34.1805792,8.22078365 41.2129472,5.30971039 48.6923339,5.30971039 C53.4350937,5.30971039 58.0034072,6.48722317 62.0592845,8.68960818 L62.6807496,9.04940375 C66.8565588,11.4698467 70.3672913,14.9478705 72.8204429,19.1127768 C75.3499148,23.397615 76.6800681,28.3039182 76.6800681,33.3083475 C76.6800681,38.3127768 75.3499148,43.2190801 72.8204429,47.5039182 C71.6102215,49.5536627 70.1492334,51.4507666 68.4701874,53.1189097 C68.4265758,53.1625213 68.3829642,53.2061329 68.3284497,53.2606474 C68.2630324,53.3260647 68.1867121,53.3914821 68.1212947,53.4678024 C68.0013629,53.5768313 67.8923339,53.6858603 67.772402,53.8057922 C67.7505963,53.827598 67.7287905,53.8385009 67.7178876,53.8603066 C67.5870528,53.9802385 67.4562181,54.1001704 67.3253833,54.2091993 C67.2926746,54.241908 67.2599659,54.2637138 67.2272572,54.2964225 C67.1073254,54.4054514 66.9764906,54.5144804 66.8456559,54.6235094 C66.8238501,54.6344123 66.8129472,54.6562181 66.7911414,54.667121 C66.6494037,54.7870528 66.4967632,54.9178876 66.3441227,55.0378194 C66.3332198,55.0378194 66.3332198,55.0487223 66.3223169,55.0487223 C66.2350937,54.4708688 66.1369676,53.8930153 66.0279387,53.3260647 C66.0279387,53.3151618 66.0279387,53.3042589 66.0170358,53.293356 C65.9734242,53.0534923 65.9189097,52.8245315 65.8643952,52.5846678 C65.8534923,52.5519591 65.8534923,52.5192504 65.8425894,52.4865417 C65.788075,52.246678 65.7335605,52.0177172 65.679046,51.7778535 C65.6463373,51.6252129 65.6027257,51.4834753 65.5591141,51.3308348 C65.5373083,51.2545145 65.5155026,51.1781942 65.4936968,51.1018739 C65.4500852,50.9165247 65.3955707,50.7420784 65.3410562,50.5567291 C65.3301533,50.5240204 65.3192504,50.4913118 65.3083475,50.4586031 C63.7601363,45.1597956 60.9035775,40.3080068 56.8913118,36.2957411 C50.6003407,30.00477 42.2269165,26.5376491 33.3301533,26.5376491 C29.0453152,26.5376491 24.8804089,27.3444634 21.0207836,28.8817717 C21.9584327,23.081431 24.6623509,17.7390119 28.8926746,13.5086882 Z M9.21294719,74.0633731 C6.6834753,69.7785349 5.35332198,64.8722317 5.35332198,59.8678024 C5.35332198,52.3884157 8.26439523,45.3560477 13.5522998,40.0681431 C15.1986371,38.4218058 17.0194208,37.0044293 18.9601363,35.8378194 L19.3526405,35.6088586 C21.4678024,34.3877342 23.7247019,33.4500852 26.0688245,32.8177172 C26.1124361,32.8068143 26.1560477,32.7959114 26.1996593,32.7850085 C26.3413969,32.7413969 26.4940375,32.7086882 26.6357751,32.6759796 C26.7993186,32.632368 26.962862,32.5996593 27.1264055,32.5560477 C27.1591141,32.5451448 27.1809199,32.5451448 27.2136286,32.5342419 C29.2088586,32.0872232 31.2586031,31.8582624 33.3519591,31.8582624 C40.8313458,31.8582624 47.8637138,34.7693356 53.1625213,40.0572402 C53.3151618,40.2098807 53.4678024,40.3734242 53.6204429,40.5260647 C53.6422487,40.5478705 53.6749574,40.5805792 53.6967632,40.602385 C53.827598,40.7441227 53.9584327,40.8749574 54.0892675,41.0166951 C54.1110733,41.0385009 54.132879,41.0603066 54.1546848,41.0930153 C57.8180579,45.1488927 60.1730835,50.1097104 61.0126065,55.4412266 C57.1093697,53.8930153 52.9226576,53.086201 48.6923339,53.086201 C39.7846678,53.086201 31.4221465,56.553322 25.1311755,62.844293 C19.9850085,67.99046 16.7359455,74.5103918 15.7219761,81.5972743 C13.1270869,79.5039182 10.913799,76.9526405 9.21294719,74.0633731 Z M28.8817717,106.216014 C23.5938671,100.928109 20.6827939,93.8957411 20.6827939,86.4163543 C20.6827939,78.9369676 23.5938671,71.9045997 28.8817717,66.6166951 C34.1696763,61.3287905 41.2020443,58.4177172 48.681431,58.4177172 C51.6361158,58.4177172 54.5689949,58.8865417 57.3601363,59.7805792 C57.807155,59.9223169 58.2541738,60.0858603 58.6902896,60.2494037 C55.4630324,62.8006814 52.7264055,65.9407155 50.6221465,69.4950596 C47.6129472,74.597615 46.0211244,80.4415673 46.0211244,86.3945486 C46.0211244,86.3945486 46.0211244,86.3945486 46.0211244,86.3945486 C46.0211244,86.3945486 46.0211244,86.3945486 46.0211244,86.4054514 C46.0211244,92.3584327 47.6129472,98.202385 50.6221465,103.30494 C52.7155026,106.870187 55.4630324,109.999319 58.6902896,112.550596 C55.506644,113.771721 52.1158433,114.404089 48.681431,114.404089 C41.2020443,114.414991 34.1696763,111.503918 28.8817717,106.216014 Z M99.1400341,106.226917 C93.8521295,111.514821 86.8197615,114.425894 79.3403748,114.425894 C74.4122658,114.425894 69.5713799,113.12845 65.3410562,110.675298 L65.3410562,110.675298 C63.6293015,109.683135 62.0374787,108.516525 60.5764906,107.197274 C58.4722317,105.289267 56.651448,103.065077 55.2013629,100.611925 C52.671891,96.3270869 51.3417376,91.4207836 51.3417376,86.4163543 C51.3417376,81.411925 52.671891,76.5056218 55.2013629,72.2207836 C55.2994889,72.0572402 55.397615,71.9045997 55.4957411,71.7410562 C55.5284497,71.6974446 55.5502555,71.653833 55.5829642,71.6102215 C55.6701874,71.4793867 55.7465077,71.348552 55.8337308,71.2177172 C55.8555366,71.1959114 55.8664395,71.1632027 55.8882453,71.1413969 C57.4800681,68.6991482 59.4534923,66.5294719 61.7103918,64.6868825 C61.9284497,66.2350937 62.2664395,67.7505963 62.6916525,69.2224872 C62.6916525,69.2333901 62.6916525,69.2333901 62.7025554,69.244293 C62.7570698,69.4405451 62.8224872,69.6367973 62.8770017,69.8330494 C62.8879046,69.876661 62.8988075,69.9093697 62.9097104,69.9529813 C62.9642249,70.1274276 63.0187394,70.3127768 63.0841567,70.4872232 C63.1059625,70.5417376 63.1168654,70.5853492 63.1386712,70.6398637 C63.2258944,70.8797274 63.3022147,71.1195911 63.3894378,71.3594549 C63.4439523,71.5120954 63.4984668,71.653833 63.5529813,71.8064736 C63.5856899,71.8827939 63.6183986,71.9591141 63.6511073,72.0463373 C63.7165247,72.2098807 63.7819421,72.3734242 63.8473595,72.5369676 C63.8691652,72.602385 63.9018739,72.6568995 63.9236797,72.7223169 C64.0109029,72.918569 64.0872232,73.1148211 64.1744463,73.3110733 C64.1853492,73.3437819 64.1962521,73.3655877 64.207155,73.3982964 C65.8425894,77.0943782 68.1649063,80.4851789 71.1086882,83.4398637 C77.3996593,89.7308348 85.7730835,93.1979557 94.6698467,93.1979557 C96.316184,93.1979557 97.9625213,93.067121 99.5870528,92.8272572 C99.6415673,92.8163543 99.7069847,92.8054514 99.7614991,92.8054514 C99.9359455,92.7836457 100.099489,92.750937 100.273935,92.7291312 C102.596252,92.3366269 104.842249,91.7042589 107.011925,90.853833 C106.085179,96.6432709 103.381261,101.98569 99.1400341,106.226917 Z M109.62862,83.5488927 L108.669165,84.1049404 C104.427939,86.558092 99.5870528,87.8555366 94.6698467,87.8555366 C87.19046,87.8555366 80.158092,84.9444634 74.8701874,79.6565588 C70.6398637,75.4262351 67.9250426,70.0729131 67.0201022,64.2725724 C68.9608177,65.046678 70.9669506,65.6245315 73.0166951,66.0279387 C73.0385009,66.0279387 73.0712095,66.0388416 73.0930153,66.0388416 C73.3219761,66.0824532 73.550937,66.1260647 73.7798978,66.1587734 C73.8017036,66.1587734 73.8126065,66.1696763 73.8344123,66.1696763 C74.0633731,66.2132879 74.3032368,66.2459966 74.5431005,66.2787053 C74.597615,66.2896082 74.6521295,66.2896082 74.7175468,66.3005111 C74.9028961,66.3223169 75.0773424,66.3550256 75.2626917,66.3768313 C75.328109,66.3877342 75.3935264,66.3877342 75.4589438,66.3986371 C75.6770017,66.4204429 75.8950596,66.4531516 76.1240204,66.4749574 C76.1894378,66.4858603 76.2657581,66.4858603 76.3311755,66.4967632 C76.4947189,66.5076661 76.6582624,66.5294719 76.8218058,66.5403748 C76.8981261,66.5512777 76.9853492,66.5512777 77.0616695,66.5621806 C77.2797274,66.5730835 77.4977853,66.5948893 77.7158433,66.6057922 C77.7703578,66.6057922 77.8248722,66.6057922 77.8902896,66.6166951 C78.0647359,66.627598 78.2500852,66.627598 78.4354344,66.6385009 C78.5117547,66.6385009 78.588075,66.6385009 78.6643952,66.6494037 C78.8824532,66.6494037 79.111414,66.6603066 79.3294719,66.6603066 C79.3403748,66.6603066 79.3403748,66.6603066 79.3512777,66.6603066 C79.3512777,66.6603066 79.3512777,66.6603066 79.3512777,66.6603066 C79.3512777,66.6603066 79.3512777,66.6603066 79.3621806,66.6603066 C88.2589438,66.6603066 96.6214651,63.1931857 102.923339,56.9131175 C108.069506,51.7669506 111.318569,45.2470187 112.332538,38.1601363 C114.916525,40.2643952 117.129813,42.8156729 118.830664,45.7049404 C121.360136,49.9897785 122.69029,54.8960818 122.69029,59.9005111 C122.69029,67.3798978 119.779216,74.4122658 114.491312,79.7001704 C112.986712,81.1502555 111.362181,82.4477002 109.62862,83.5488927 Z" id="Shape"></path>
        </g>
    </g>
</svg>

<svg xmlns="http://www.w3.org/2000/svg" viewBox="0 0 128 120"><path d="M127.99 59.868a33.3 33.3 0 0 0-4.602-16.9 33.6 33.6 0 0 0-10.761-11.175c-.37-8.33-3.794-16.104-9.725-22.035C96.61 3.468 88.237 0 79.34 0a33.2 33.2 0 0 0-15.318 3.729C59.334 1.287 54.112 0 48.682 0c-8.897 0-17.27 3.456-23.562 9.747-5.93 5.931-9.344 13.705-9.725 22.024a33.5 33.5 0 0 0-5.604 4.525C3.5 42.586.033 50.96.033 59.856a33.3 33.3 0 0 0 4.6 16.9 33.4 33.4 0 0 0 10.762 11.176c.37 8.34 3.794 16.114 9.725 22.046 6.291 6.29 14.665 9.758 23.561 9.758a33.4 33.4 0 0 0 15.33-3.73 33.26 33.26 0 0 0 15.33 3.73c8.896 0 17.259-3.468 23.56-9.77 5.932-5.93 9.344-13.704 9.726-22.023a33.5 33.5 0 0 0 5.604-4.514c6.291-6.291 9.758-14.664 9.758-23.561M79.34 5.32c7.48 0 14.512 2.91 19.8 8.199 5.288 5.287 8.199 12.32 8.199 19.788 0 7.48-2.911 14.512-8.199 19.8s-12.32 8.199-19.8 8.199a28.2 28.2 0 0 1-10.008-1.843 33.8 33.8 0 0 0 6.367-6.65l.022-.022c.12-.164.229-.327.338-.48.054-.076.109-.153.163-.24.033-.054.066-.109.11-.152.37-.556.73-1.113 1.068-1.68A33.3 33.3 0 0 0 82 33.342v-.033c0-.229 0-.458-.01-.676 0-.098 0-.185-.011-.283 0-.13-.011-.262-.011-.393-.338-8.395-3.762-16.223-9.725-22.187a33 33 0 0 0-2.911-2.584A27.7 27.7 0 0 1 79.34 5.321m-50.447 8.188c5.288-5.288 12.32-8.2 19.8-8.2 4.742 0 9.31 1.178 13.366 3.38l.622.36a28.2 28.2 0 0 1 10.14 10.064 27.9 27.9 0 0 1 3.86 14.195 27.93 27.93 0 0 1-3.86 14.196 28 28 0 0 1-4.35 5.615l-.143.142c-.065.065-.141.13-.207.207-.12.109-.229.218-.349.338-.021.022-.043.033-.054.054-.13.12-.262.24-.393.35-.032.032-.065.054-.098.086-.12.11-.25.218-.381.328-.022.01-.033.032-.055.043-.142.12-.294.25-.447.37-.01 0-.01.012-.022.012a44 44 0 0 0-.294-1.723c0-.01 0-.022-.011-.033-.044-.24-.098-.468-.153-.708-.01-.033-.01-.066-.021-.098-.055-.24-.11-.47-.164-.71-.033-.152-.076-.294-.12-.446l-.065-.23c-.044-.184-.098-.359-.153-.544l-.033-.098c-1.548-5.3-4.404-10.151-8.417-14.163-6.29-6.291-14.664-9.758-23.56-9.758-4.286 0-8.45.806-12.31 2.344a27.95 27.95 0 0 1 7.872-15.373M9.213 74.063a27.9 27.9 0 0 1-3.86-14.195c0-7.48 2.911-14.512 8.2-19.8a28.2 28.2 0 0 1 5.407-4.23l.393-.23a28 28 0 0 1 6.716-2.79l.13-.033c.142-.044.295-.076.437-.109.163-.044.327-.076.49-.12.033-.01.055-.01.088-.022a28 28 0 0 1 6.138-.676c7.48 0 14.512 2.911 19.81 8.2.153.152.306.315.458.468l.077.076c.13.142.261.273.392.415.022.022.044.043.066.076a27.8 27.8 0 0 1 6.858 14.348 33.5 33.5 0 0 0-12.32-2.355c-8.908 0-17.27 3.467-23.562 9.758-5.146 5.146-8.395 11.666-9.409 18.753a27.8 27.8 0 0 1-6.51-7.534m19.669 32.153c-5.288-5.288-8.2-12.32-8.2-19.8 0-7.479 2.912-14.511 8.2-19.8 5.288-5.287 12.32-8.198 19.8-8.198 2.954 0 5.887.469 8.678 1.363.447.141.894.305 1.33.468a33.6 33.6 0 0 0-8.068 9.246 33.3 33.3 0 0 0-4.6 16.9v.01a33.29 33.29 0 0 0 12.668 26.146 28 28 0 0 1-10.009 1.853c-7.479.011-14.511-2.9-19.8-8.188m70.258.01c-5.288 5.289-12.32 8.2-19.8 8.2a27.93 27.93 0 0 1-13.999-3.75 28.2 28.2 0 0 1-10.14-10.064 27.9 27.9 0 0 1-3.86-14.196c0-5.004 1.33-9.91 3.86-14.195.098-.164.197-.316.295-.48.032-.044.054-.087.087-.13.087-.132.164-.262.25-.393.023-.022.033-.055.055-.077a28.3 28.3 0 0 1 5.822-6.454c.218 1.548.556 3.064.982 4.535 0 .011 0 .011.01.022.055.197.12.393.175.589.01.044.022.076.033.12.054.174.109.36.174.534.022.055.033.098.055.153.087.24.163.48.25.72.055.152.11.294.164.446.033.077.065.153.098.24l.196.491c.022.065.055.12.077.185.087.197.163.393.25.59.011.032.022.054.033.086 1.636 3.696 3.958 7.087 6.902 10.042 6.29 6.29 14.664 9.758 23.56 9.758 1.647 0 3.294-.13 4.918-.37a1 1 0 0 1 .174-.023c.175-.021.338-.054.513-.076a34 34 0 0 0 6.738-1.875c-.927 5.79-3.63 11.132-7.872 15.373m10.489-22.677-.96.556a28 28 0 0 1-14 3.75c-7.479 0-14.51-2.91-19.799-8.198-4.23-4.23-6.945-9.584-7.85-15.384a34 34 0 0 0 5.997 1.755c.022 0 .054.01.076.01.229.044.458.088.687.12.022 0 .033.012.054.012.23.043.47.076.71.109.054.01.108.01.174.022.185.021.36.054.545.076.065.01.13.01.196.022.218.021.436.054.665.076.065.01.142.01.207.022.164.01.327.032.49.043.077.011.164.011.24.022.219.011.437.033.655.044.054 0 .109 0 .174.01.175.012.36.012.545.023.077 0 .153 0 .23.01.217 0 .446.011.664.011h.033c8.897 0 17.26-3.467 23.561-9.747 5.147-5.146 8.396-11.666 9.41-18.753a28.2 28.2 0 0 1 6.498 7.545 27.9 27.9 0 0 1 3.86 14.196c0 7.479-2.912 14.511-8.2 19.8a31 31 0 0 1-4.862 3.848"/></svg>
